icons/fill-ele-office-book-s-manangement.svg

<svg xmlns="http://www.w3.org/2000/svg" width="32px" height="32px" viewBox="0 0 32 32" version="1.1">
    <title>fill-ele-office-book-s-manangement</title>
    <g id="fill-ele-office-book-s-manangement" stroke-width="1" fill-rule="evenodd">
        <path d="M8,4 L8,28 L5,28 C4.44771525,28 4,27.5522847 4,27 L4,5 C4,4.44771525 4.44771525,4 5,4 L8,4 Z M27,4 C27.5522847,4 28,4.44771525 28,5 L28,27 C28,27.5522847 27.5522847,28 27,28 L10,28 L10,4 L18,4 L18,13 L21,10 L24,13 L24,4 L27,4 Z" id="&#24418;&#29366;" />
    </g>
</svg>

<svg xmlns="http://www.w3.org/2000/svg" viewBox="0 0 32 32"><path fill="currentColor" d="M8 4v24H5a1 1 0 0 1-1-1V5a1 1 0 0 1 1-1zm19 0a1 1 0 0 1 1 1v22a1 1 0 0 1-1 1H10V4h8v9l3-3 3 3V4z"/></svg>
